svg/fluentui-system-icons/ic_fluent_data_trending_24_regular.svg

<svg width="24" height="24" viewBox="0 0 24 24" fill="none" xmlns="http://www.w3.org/2000/svg">
<path d="M4.5 3.75C4.5 3.33579 4.16421 3 3.75 3C3.33579 3 3 3.33579 3 3.75V17.75C3 19.5449 4.45507 21 6.25 21H20.25C20.6642 21 21 20.6642 21 20.25C21 19.8358 20.6642 19.5 20.25 19.5H6.25C5.2835 19.5 4.5 18.7165 4.5 17.75V3.75ZM14.75 6C14.3358 6 14 6.33579 14 6.75C14 7.16421 14.3358 7.5 14.75 7.5H17.9393L13.25 12.1893L11.2803 10.2197C10.9874 9.92678 10.5126 9.92678 10.2197 10.2197L6.46967 13.9697C6.17678 14.2626 6.17678 14.7374 6.46967 15.0303C6.76256 15.3232 7.23744 15.3232 7.53033 15.0303L10.75 11.8107L12.7197 13.7803C13.0126 14.0732 13.4874 14.0732 13.7803 13.7803L19.0015 8.55917L19.0015 11.755C19.0015 12.1692 19.3373 12.505 19.7515 12.505C20.1658 12.505 20.5015 12.1692 20.5015 11.755L20.5015 6.74999C20.5015 6.33578 20.1657 6 19.7515 6H14.75Z" fill="#212121"/>
</svg>

<svg xmlns="http://www.w3.org/2000/svg" width="24" height="24"><path d="M4.5 3.75a.75.75 0 0 0-1.5 0v14A3.25 3.25 0 0 0 6.25 21h14a.75.75 0 0 0 0-1.5h-14a1.75 1.75 0 0 1-1.75-1.75v-14ZM14.75 6a.75.75 0 0 0 0 1.5h3.19l-4.69 4.69-1.97-1.97a.75.75 0 0 0-1.06 0l-3.75 3.75a.75.75 0 1 0 1.06 1.06l3.22-3.22 1.97 1.97a.75.75 0 0 0 1.06 0l5.222-5.22v3.195a.75.75 0 0 0 1.5 0V6.75a.75.75 0 0 0-.75-.75H14.75Z"/></svg>
